images/3234737.svg

<?xml version="1.0" encoding="UTF-8"?>
<svg xmlns="http://www.w3.org/2000/svg" xmlns:xlink="http://www.w3.org/1999/xlink" width="300pt" height="300pt" viewBox="0 0 300 300" version="1.1">
<defs>
<g>
<symbol overflow="visible" id="glyph0-0">
<path style="stroke:none;" d="M 0.453125 1.59375 L 0.453125 -6.34375 L 4.953125 -6.34375 L 4.953125 1.59375 Z M 0.953125 1.09375 L 4.453125 1.09375 L 4.453125 -5.84375 L 0.953125 -5.84375 Z M 0.953125 1.09375 "/>
</symbol>
<symbol overflow="visible" id="glyph0-1">
<path style="stroke:none;" d="M 0.890625 -6.5625 L 2.078125 -6.5625 L 4.984375 -1.078125 L 4.984375 -6.5625 L 5.84375 -6.5625 L 5.84375 0 L 4.65625 0 L 1.75 -5.484375 L 1.75 0 L 0.890625 0 Z M 0.890625 -6.5625 "/>
</symbol>
<symbol overflow="visible" id="glyph0-2">
<path style="stroke:none;" d="M 0.890625 -6.5625 L 1.765625 -6.5625 L 1.765625 -3.875 L 5 -3.875 L 5 -6.5625 L 5.890625 -6.5625 L 5.890625 0 L 5 0 L 5 -3.125 L 1.765625 -3.125 L 1.765625 0 L 0.890625 0 Z M 0.890625 -6.5625 "/>
</symbol>
<symbol overflow="visible" id="glyph0-3">
<path style="stroke:none;" d="M 3.546875 -5.953125 C 2.898438 -5.953125 2.382812 -5.710938 2 -5.234375 C 1.625 -4.753906 1.4375 -4.101562 1.4375 -3.28125 C 1.4375 -2.445312 1.625 -1.789062 2 -1.3125 C 2.382812 -0.832031 2.898438 -0.59375 3.546875 -0.59375 C 4.191406 -0.59375 4.703125 -0.832031 5.078125 -1.3125 C 5.453125 -1.789062 5.640625 -2.445312 5.640625 -3.28125 C 5.640625 -4.101562 5.453125 -4.753906 5.078125 -5.234375 C 4.703125 -5.710938 4.191406 -5.953125 3.546875 -5.953125 Z M 3.546875 -6.6875 C 4.460938 -6.6875 5.195312 -6.375 5.75 -5.75 C 6.300781 -5.132812 6.578125 -4.3125 6.578125 -3.28125 C 6.578125 -2.238281 6.300781 -1.410156 5.75 -0.796875 C 5.195312 -0.179688 4.460938 0.125 3.546875 0.125 C 2.617188 0.125 1.878906 -0.179688 1.328125 -0.796875 C 0.773438 -1.410156 0.5 -2.238281 0.5 -3.28125 C 0.5 -4.3125 0.773438 -5.132812 1.328125 -5.75 C 1.878906 -6.375 2.617188 -6.6875 3.546875 -6.6875 Z M 3.546875 -6.6875 "/>
</symbol>
<symbol overflow="visible" id="glyph0-4">
<path style="stroke:none;" d="M 0.890625 -6.5625 L 4.65625 -6.5625 L 4.65625 -5.8125 L 1.765625 -5.8125 L 1.765625 -3.875 L 4.375 -3.875 L 4.375 -3.140625 L 1.765625 -3.140625 L 1.765625 0 L 0.890625 0 Z M 0.890625 -6.5625 "/>
</symbol>
</g>
</defs>
<g id="surface44261">
<rect x="0" y="0" width="300" height="300" style="fill:rgb(100%,100%,100%);fill-opacity:1;stroke:none;"/>
<path style="fill:none;stroke-width:1.2;stroke-linecap:butt;stroke-linejoin:miter;stroke:rgb(0%,0%,0%);stroke-opacity:1;stroke-miterlimit:10;" d="M 35.25 107.625 L 56.734375 106.121094 "/>
<path style="fill:none;stroke-width:1.2;stroke-linecap:butt;stroke-linejoin:miter;stroke:rgb(0%,0%,0%);stroke-opacity:1;stroke-miterlimit:10;" d="M 56.734375 106.121094 L 62.757812 115.046875 "/>
<path style="fill:none;stroke-width:1.2;stroke-linecap:butt;stroke-linejoin:miter;stroke:rgb(0%,0%,100%);stroke-opacity:1;stroke-miterlimit:10;" d="M 62.757812 115.046875 L 68.78125 123.972656 "/>
<path style="fill:none;stroke-width:1.2;stroke-linecap:butt;stroke-linejoin:miter;stroke:rgb(0%,0%,100%);stroke-opacity:1;stroke-miterlimit:10;" d="M 68.78125 123.972656 L 79.523438 123.21875 "/>
<path style="fill:none;stroke-width:1.2;stroke-linecap:butt;stroke-linejoin:miter;stroke:rgb(0%,0%,0%);stroke-opacity:1;stroke-miterlimit:10;" d="M 79.523438 123.21875 L 90.265625 122.46875 "/>
<path style=" stroke:none;fill-rule:nonzero;fill:rgb(100%,100%,100%);fill-opacity:1;" d="M 61.78125 118.472656 L 75.78125 118.472656 L 75.78125 129.472656 L 61.78125 129.472656 Z M 61.78125 118.472656 "/>
<g style="fill:rgb(0%,0%,100%);fill-opacity:1;">
  <use xlink:href="#glyph0-1" x="61.78125" y="127.135742"/>
  <use xlink:href="#glyph0-2" x="68.758789" y="127.135742"/>
</g>
<path style="fill:none;stroke-width:1.2;stroke-linecap:butt;stroke-linejoin:miter;stroke:rgb(0%,0%,0%);stroke-opacity:1;stroke-miterlimit:10;" d="M 90.265625 122.46875 L 94.984375 112.789062 "/>
<path style="fill:none;stroke-width:1.2;stroke-linecap:butt;stroke-linejoin:miter;stroke:rgb(0%,0%,100%);stroke-opacity:1;stroke-miterlimit:10;" d="M 94.984375 112.789062 L 99.703125 103.109375 "/>
<path style="fill:none;stroke-width:1.2;stroke-linecap:butt;stroke-linejoin:miter;stroke:rgb(0%,0%,0%);stroke-opacity:1;stroke-miterlimit:10;" d="M 95.765625 122.753906 L 99.539062 115.007812 "/>
<path style="fill:none;stroke-width:1.2;stroke-linecap:butt;stroke-linejoin:miter;stroke:rgb(0%,0%,100%);stroke-opacity:1;stroke-miterlimit:10;" d="M 99.539062 115.007812 L 103.316406 107.265625 "/>
<path style="fill:none;stroke-width:1.2;stroke-linecap:butt;stroke-linejoin:miter;stroke:rgb(0%,0%,100%);stroke-opacity:1;stroke-miterlimit:10;" d="M 102.3125 140.320312 L 96.289062 131.394531 "/>
<path style="fill:none;stroke-width:1.2;stroke-linecap:butt;stroke-linejoin:miter;stroke:rgb(0%,0%,0%);stroke-opacity:1;stroke-miterlimit:10;" d="M 96.289062 131.394531 L 90.265625 122.46875 "/>
<path style="fill:none;stroke-width:1.2;stroke-linecap:butt;stroke-linejoin:miter;stroke:rgb(0%,0%,100%);stroke-opacity:1;stroke-miterlimit:10;" d="M 99.703125 103.109375 L 110.445312 102.355469 "/>
<path style="fill:none;stroke-width:1.2;stroke-linecap:butt;stroke-linejoin:miter;stroke:rgb(0%,0%,0%);stroke-opacity:1;stroke-miterlimit:10;" d="M 110.445312 102.355469 L 121.1875 101.601562 "/>
<path style=" stroke:none;fill-rule:nonzero;fill:rgb(100%,100%,100%);fill-opacity:1;" d="M 96.703125 97.609375 L 103.703125 97.609375 L 103.703125 108.609375 L 96.703125 108.609375 Z M 96.703125 97.609375 "/>
<g style="fill:rgb(0%,0%,100%);fill-opacity:1;">
  <use xlink:href="#glyph0-1" x="96.703125" y="106.272461"/>
</g>
<path style="fill:none;stroke-width:1.2;stroke-linecap:butt;stroke-linejoin:miter;stroke:rgb(0%,0%,0%);stroke-opacity:1;stroke-miterlimit:10;" d="M 121.1875 101.601562 L 133.234375 119.457031 "/>
<path style="fill:none;stroke-width:1.2;stroke-linecap:butt;stroke-linejoin:miter;stroke:rgb(0%,0%,0%);stroke-opacity:1;stroke-miterlimit:10;" d="M 118.191406 106.222656 L 127.828125 120.503906 "/>
<path style="fill:none;stroke-width:1.2;stroke-linecap:butt;stroke-linejoin:miter;stroke:rgb(0%,0%,0%);stroke-opacity:1;stroke-miterlimit:10;" d="M 133.234375 119.457031 L 123.796875 138.816406 "/>
<path style="fill:none;stroke-width:1.2;stroke-linecap:butt;stroke-linejoin:miter;stroke:rgb(0%,0%,100%);stroke-opacity:1;stroke-miterlimit:10;" d="M 154.71875 117.949219 L 143.976562 118.703125 "/>
<path style="fill:none;stroke-width:1.2;stroke-linecap:butt;stroke-linejoin:miter;stroke:rgb(0%,0%,0%);stroke-opacity:1;stroke-miterlimit:10;" d="M 143.976562 118.703125 L 133.234375 119.457031 "/>
<path style="fill:none;stroke-width:1.2;stroke-linecap:butt;stroke-linejoin:miter;stroke:rgb(0%,0%,0%);stroke-opacity:1;stroke-miterlimit:10;" d="M 123.796875 138.816406 L 113.054688 139.566406 "/>
<path style="fill:none;stroke-width:1.2;stroke-linecap:butt;stroke-linejoin:miter;stroke:rgb(0%,0%,100%);stroke-opacity:1;stroke-miterlimit:10;" d="M 113.054688 139.566406 L 102.3125 140.320312 "/>
<path style="fill:none;stroke-width:1.2;stroke-linecap:butt;stroke-linejoin:miter;stroke:rgb(0%,0%,0%);stroke-opacity:1;stroke-miterlimit:10;" d="M 121.292969 133.910156 L 112.699219 134.511719 "/>
<path style="fill:none;stroke-width:1.2;stroke-linecap:butt;stroke-linejoin:miter;stroke:rgb(0%,0%,100%);stroke-opacity:1;stroke-miterlimit:10;" d="M 112.699219 134.511719 L 104.105469 135.113281 "/>
<path style="fill:none;stroke-width:1.2;stroke-linecap:butt;stroke-linejoin:miter;stroke:rgb(0%,0%,0%);stroke-opacity:1;stroke-miterlimit:10;" d="M 123.796875 138.816406 L 129.820312 147.742188 "/>
<path style="fill:none;stroke-width:1.2;stroke-linecap:butt;stroke-linejoin:miter;stroke:rgb(0%,0%,100%);stroke-opacity:1;stroke-miterlimit:10;" d="M 129.820312 147.742188 L 135.84375 156.667969 "/>
<path style=" stroke:none;fill-rule:nonzero;fill:rgb(100%,100%,100%);fill-opacity:1;" d="M 99.3125 134.820312 L 106.3125 134.820312 L 106.3125 145.820312 L 99.3125 145.820312 Z M 99.3125 134.820312 "/>
<g style="fill:rgb(0%,0%,100%);fill-opacity:1;">
  <use xlink:href="#glyph0-1" x="99.3125" y="143.483398"/>
</g>
<path style="fill:none;stroke-width:1.2;stroke-linecap:butt;stroke-linejoin:miter;stroke:rgb(0%,0%,100%);stroke-opacity:1;stroke-miterlimit:10;" d="M 135.84375 156.667969 L 146.585938 155.914062 "/>
<path style="fill:none;stroke-width:1.2;stroke-linecap:butt;stroke-linejoin:miter;stroke:rgb(0%,0%,0%);stroke-opacity:1;stroke-miterlimit:10;" d="M 146.585938 155.914062 L 157.328125 155.164062 "/>
<path style="fill:none;stroke-width:1.2;stroke-linecap:butt;stroke-linejoin:miter;stroke:rgb(0%,0%,100%);stroke-opacity:1;stroke-miterlimit:10;" d="M 135.84375 156.667969 L 131.125 166.347656 "/>
<path style="fill:none;stroke-width:1.2;stroke-linecap:butt;stroke-linejoin:miter;stroke:rgb(0%,0%,0%);stroke-opacity:1;stroke-miterlimit:10;" d="M 131.125 166.347656 L 126.402344 176.027344 "/>
<path style=" stroke:none;fill-rule:nonzero;fill:rgb(100%,100%,100%);fill-opacity:1;" d="M 132.84375 151.167969 L 139.84375 151.167969 L 139.84375 162.167969 L 132.84375 162.167969 Z M 132.84375 151.167969 "/>
<g style="fill:rgb(0%,0%,100%);fill-opacity:1;">
  <use xlink:href="#glyph0-1" x="132.84375" y="159.831055"/>
</g>
<path style="fill:none;stroke-width:1.2;stroke-linecap:butt;stroke-linejoin:miter;stroke:rgb(0%,0%,0%);stroke-opacity:1;stroke-miterlimit:10;" d="M 155.226562 156.578125 L 161.25 165.507812 "/>
<path style="fill:none;stroke-width:1.2;stroke-linecap:butt;stroke-linejoin:miter;stroke:rgb(100%,0%,0%);stroke-opacity:1;stroke-miterlimit:10;" d="M 161.25 165.507812 L 167.273438 174.433594 "/>
<path style="fill:none;stroke-width:1.2;stroke-linecap:butt;stroke-linejoin:miter;stroke:rgb(0%,0%,0%);stroke-opacity:1;stroke-miterlimit:10;" d="M 159.425781 153.746094 L 165.449219 162.671875 "/>
<path style="fill:none;stroke-width:1.2;stroke-linecap:butt;stroke-linejoin:miter;stroke:rgb(100%,0%,0%);stroke-opacity:1;stroke-miterlimit:10;" d="M 165.449219 162.671875 L 171.472656 171.597656 "/>
<path style="fill:none;stroke-width:1.2;stroke-linecap:butt;stroke-linejoin:miter;stroke:rgb(0%,0%,0%);stroke-opacity:1;stroke-miterlimit:10;" d="M 157.328125 155.164062 L 166.765625 135.804688 "/>
<path style=" stroke:none;fill-rule:nonzero;fill:rgb(100%,100%,100%);fill-opacity:1;" d="M 165.375 167.515625 L 173.375 167.515625 L 173.375 178.515625 L 165.375 178.515625 Z M 165.375 167.515625 "/>
<g style="fill:rgb(100%,0%,0%);fill-opacity:1;">
  <use xlink:href="#glyph0-3" x="165.375" y="176.178711"/>
</g>
<path style="fill:none;stroke-width:1.2;stroke-linecap:butt;stroke-linejoin:miter;stroke:rgb(0%,0%,0%);stroke-opacity:1;stroke-miterlimit:10;" d="M 166.765625 135.804688 L 160.742188 126.875 "/>
<path style="fill:none;stroke-width:1.2;stroke-linecap:butt;stroke-linejoin:miter;stroke:rgb(0%,0%,100%);stroke-opacity:1;stroke-miterlimit:10;" d="M 160.742188 126.875 L 154.71875 117.949219 "/>
<path style="fill:none;stroke-width:1.2;stroke-linecap:butt;stroke-linejoin:miter;stroke:rgb(0%,0%,0%);stroke-opacity:1;stroke-miterlimit:10;" d="M 161.359375 136.851562 L 156.542969 129.710938 "/>
<path style="fill:none;stroke-width:1.2;stroke-linecap:butt;stroke-linejoin:miter;stroke:rgb(0%,0%,100%);stroke-opacity:1;stroke-miterlimit:10;" d="M 156.542969 129.710938 L 151.722656 122.570312 "/>
<path style="fill:none;stroke-width:1.2;stroke-linecap:butt;stroke-linejoin:miter;stroke:rgb(0%,0%,0%);stroke-opacity:1;stroke-miterlimit:10;" d="M 166.765625 135.804688 L 188.25 134.296875 "/>
<path style=" stroke:none;fill-rule:nonzero;fill:rgb(100%,100%,100%);fill-opacity:1;" d="M 151.71875 112.449219 L 158.71875 112.449219 L 158.71875 123.449219 L 151.71875 123.449219 Z M 151.71875 112.449219 "/>
<g style="fill:rgb(0%,0%,100%);fill-opacity:1;">
  <use xlink:href="#glyph0-1" x="151.71875" y="121.112305"/>
</g>
<path style="fill:none;stroke-width:1.2;stroke-linecap:butt;stroke-linejoin:miter;stroke:rgb(0%,0%,0%);stroke-opacity:1;stroke-miterlimit:10;" d="M 188.25 134.296875 L 200.296875 152.152344 "/>
<path style="fill:none;stroke-width:1.2;stroke-linecap:butt;stroke-linejoin:miter;stroke:rgb(0%,0%,0%);stroke-opacity:1;stroke-miterlimit:10;" d="M 200.296875 152.152344 L 221.78125 150.644531 "/>
<path style="fill:none;stroke-width:1.2;stroke-linecap:butt;stroke-linejoin:miter;stroke:rgb(0%,0%,0%);stroke-opacity:1;stroke-miterlimit:10;" d="M 221.78125 150.644531 L 233.828125 168.5 "/>
<path style="fill:none;stroke-width:1.2;stroke-linecap:butt;stroke-linejoin:miter;stroke:rgb(0%,0%,0%);stroke-opacity:1;stroke-miterlimit:10;" d="M 227.1875 149.597656 L 236.824219 163.878906 "/>
<path style="fill:none;stroke-width:1.2;stroke-linecap:butt;stroke-linejoin:miter;stroke:rgb(0%,0%,0%);stroke-opacity:1;stroke-miterlimit:10;" d="M 231.21875 131.285156 L 221.78125 150.644531 "/>
<path style="fill:none;stroke-width:1.2;stroke-linecap:butt;stroke-linejoin:miter;stroke:rgb(0%,0%,0%);stroke-opacity:1;stroke-miterlimit:10;" d="M 233.828125 168.5 L 255.3125 166.992188 "/>
<path style="fill:none;stroke-width:1.2;stroke-linecap:butt;stroke-linejoin:miter;stroke:rgb(0%,0%,0%);stroke-opacity:1;stroke-miterlimit:10;" d="M 255.3125 166.992188 L 264.75 147.632812 "/>
<path style="fill:none;stroke-width:1.2;stroke-linecap:butt;stroke-linejoin:miter;stroke:rgb(0%,0%,0%);stroke-opacity:1;stroke-miterlimit:10;" d="M 251.699219 162.835938 L 259.25 147.347656 "/>
<path style="fill:none;stroke-width:1.2;stroke-linecap:butt;stroke-linejoin:miter;stroke:rgb(0%,0%,0%);stroke-opacity:1;stroke-miterlimit:10;" d="M 264.75 147.632812 L 252.703125 129.78125 "/>
<path style="fill:none;stroke-width:1.2;stroke-linecap:butt;stroke-linejoin:miter;stroke:rgb(0%,0%,0%);stroke-opacity:1;stroke-miterlimit:10;" d="M 252.703125 129.78125 L 231.21875 131.285156 "/>
<path style="fill:none;stroke-width:1.2;stroke-linecap:butt;stroke-linejoin:miter;stroke:rgb(0%,0%,0%);stroke-opacity:1;stroke-miterlimit:10;" d="M 250.910156 134.988281 L 233.722656 136.191406 "/>
<path style="fill:none;stroke-width:1.2;stroke-linecap:butt;stroke-linejoin:miter;stroke:rgb(0%,0%,0%);stroke-opacity:1;stroke-miterlimit:10;" d="M 126.402344 176.027344 L 104.917969 177.53125 "/>
<path style="fill:none;stroke-width:1.2;stroke-linecap:butt;stroke-linejoin:miter;stroke:rgb(0%,0%,0%);stroke-opacity:1;stroke-miterlimit:10;" d="M 104.917969 177.53125 L 92.875 159.679688 "/>
<path style="fill:none;stroke-width:1.2;stroke-linecap:butt;stroke-linejoin:miter;stroke:rgb(0%,0%,0%);stroke-opacity:1;stroke-miterlimit:10;" d="M 99.515625 178.582031 L 89.878906 164.300781 "/>
<path style="fill:none;stroke-width:1.2;stroke-linecap:butt;stroke-linejoin:miter;stroke:rgb(0%,0%,0%);stroke-opacity:1;stroke-miterlimit:10;" d="M 95.480469 196.890625 L 104.917969 177.53125 "/>
<path style="fill:none;stroke-width:1.2;stroke-linecap:butt;stroke-linejoin:miter;stroke:rgb(0%,0%,0%);stroke-opacity:1;stroke-miterlimit:10;" d="M 92.875 159.679688 L 71.386719 161.183594 "/>
<path style="fill:none;stroke-width:1.2;stroke-linecap:butt;stroke-linejoin:miter;stroke:rgb(0%,0%,0%);stroke-opacity:1;stroke-miterlimit:10;" d="M 71.386719 161.183594 L 61.949219 180.542969 "/>
<path style="fill:none;stroke-width:1.2;stroke-linecap:butt;stroke-linejoin:miter;stroke:rgb(0%,0%,0%);stroke-opacity:1;stroke-miterlimit:10;" d="M 75 165.34375 L 67.449219 180.828125 "/>
<path style="fill:none;stroke-width:1.2;stroke-linecap:butt;stroke-linejoin:miter;stroke:rgb(0%,0%,0%);stroke-opacity:1;stroke-miterlimit:10;" d="M 61.949219 180.542969 L 73.996094 198.398438 "/>
<path style="fill:none;stroke-width:1.2;stroke-linecap:butt;stroke-linejoin:miter;stroke:rgb(0%,0%,0%);stroke-opacity:1;stroke-miterlimit:10;" d="M 61.949219 180.542969 L 51.207031 181.296875 "/>
<path style="fill:none;stroke-width:1.2;stroke-linecap:butt;stroke-linejoin:miter;stroke:rgb(20%,80%,80%);stroke-opacity:1;stroke-miterlimit:10;" d="M 51.207031 181.296875 L 40.464844 182.050781 "/>
<path style="fill:none;stroke-width:1.2;stroke-linecap:butt;stroke-linejoin:miter;stroke:rgb(0%,0%,0%);stroke-opacity:1;stroke-miterlimit:10;" d="M 73.996094 198.398438 L 95.480469 196.890625 "/>
<path style="fill:none;stroke-width:1.2;stroke-linecap:butt;stroke-linejoin:miter;stroke:rgb(0%,0%,0%);stroke-opacity:1;stroke-miterlimit:10;" d="M 75.789062 193.191406 L 92.976562 191.988281 "/>
<path style=" stroke:none;fill-rule:nonzero;fill:rgb(100%,100%,100%);fill-opacity:1;" d="M 34.464844 176.550781 L 40.464844 176.550781 L 40.464844 187.550781 L 34.464844 187.550781 Z M 34.464844 176.550781 "/>
<g style="fill:rgb(20%,80%,80%);fill-opacity:1;">
  <use xlink:href="#glyph0-4" x="34.464844" y="185.213867"/>
</g>
</g>
</svg>

<svg xmlns="http://www.w3.org/2000/svg" xmlns:xlink="http://www.w3.org/1999/xlink" width="300pt" height="300pt" viewBox="0 0 300 300"><defs><symbol overflow="visible"><path d="M.453 1.594v-7.938h4.5v7.938zm.5-.5h3.5v-6.938h-3.5zm0 0"/></symbol><symbol overflow="visible" id="a"><path d="M.89-6.563H2.08l2.906 5.485v-5.484h.86V0H4.656L1.75-5.484V0H.89zm0 0"/></symbol><symbol overflow="visible" id="b"><path d="M.89-6.563h.876v2.688H5v-2.688h.89V0H5v-3.125H1.766V0H.89zm0 0"/></symbol><symbol overflow="visible" id="c"><path d="M3.547-5.953c-.65 0-1.164.242-1.547.72-.375.48-.563 1.13-.563 1.952 0 .835.188 1.49.563 1.967.383.48.898.72 1.547.72.644 0 1.156-.24 1.53-.72.376-.476.564-1.132.564-1.968 0-.822-.187-1.474-.562-1.954-.375-.477-.887-.72-1.53-.72zm0-.734c.914 0 1.648.312 2.203.937.55.617.828 1.438.828 2.47 0 1.042-.277 1.87-.828 2.483-.555.617-1.29.922-2.203.922-.93 0-1.668-.305-2.22-.922C.774-1.41.5-2.237.5-3.28c0-1.033.273-1.853.828-2.47.55-.625 1.29-.938 2.22-.938zm0 0"/></symbol><symbol overflow="visible" id="d"><path d="M.89-6.563h3.766v.75h-2.89v1.938h2.61v.734h-2.61V0H.89zm0 0"/></symbol></defs><g><path fill="#fff" d="M0 0h300v300H0z"/><path d="M35.25 107.625l21.484-1.504M56.734 106.12l6.024 8.927" stroke-width="1.2" stroke="#000" stroke-miterlimit="10" fill="none"/><path d="M62.758 115.047l6.023 8.926M68.78 123.973l10.743-.754" stroke-width="1.2" stroke="#00f" stroke-miterlimit="10" fill="none"/><path d="M79.523 123.22l10.743-.75" stroke-width="1.2" stroke="#000" stroke-miterlimit="10" fill="none"/><path d="M61.78 118.473h14v11h-14zm0 0" fill="#fff"/><g fill="#00f"><use xlink:href="#a" x="61.781" y="127.136"/><use xlink:href="#b" x="68.759" y="127.136"/></g><path d="M90.266 122.47l4.718-9.68" stroke-width="1.2" stroke="#000" stroke-miterlimit="10" fill="none"/><path d="M94.984 112.79l4.72-9.68" stroke-width="1.2" stroke="#00f" stroke-miterlimit="10" fill="none"/><path d="M95.766 122.754l3.773-7.746" stroke-width="1.2" stroke="#000" stroke-miterlimit="10" fill="none"/><path d="M99.54 115.008l3.776-7.742M102.313 140.32l-6.024-8.925" stroke-width="1.2" stroke="#00f" stroke-miterlimit="10" fill="none"/><path d="M96.29 131.395l-6.024-8.926" stroke-width="1.2" stroke="#000" stroke-miterlimit="10" fill="none"/><path d="M99.703 103.11l10.742-.755" stroke-width="1.2" stroke="#00f" stroke-miterlimit="10" fill="none"/><path d="M110.445 102.355l10.743-.753" stroke-width="1.2" stroke="#000" stroke-miterlimit="10" fill="none"/><path d="M96.703 97.61h7v11h-7zm0 0" fill="#fff"/><use xlink:href="#a" x="96.703" y="106.272" fill="#00f"/><path d="M121.188 101.602l12.046 17.855M118.19 106.223l9.638 14.28M133.234 119.457l-9.437 19.36" stroke-width="1.2" stroke="#000" stroke-miterlimit="10" fill="none"/><path d="M154.72 117.95l-10.743.753" stroke-width="1.2" stroke="#00f" stroke-miterlimit="10" fill="none"/><path d="M143.977 118.703l-10.743.754M123.797 138.816l-10.742.75" stroke-width="1.2" stroke="#000" stroke-miterlimit="10" fill="none"/><path d="M113.055 139.566l-10.743.754" stroke-width="1.2" stroke="#00f" stroke-miterlimit="10" fill="none"/><path d="M121.293 133.91l-8.594.602" stroke-width="1.2" stroke="#000" stroke-miterlimit="10" fill="none"/><path d="M112.7 134.512l-8.595.6" stroke-width="1.2" stroke="#00f" stroke-miterlimit="10" fill="none"/><path d="M123.797 138.816l6.023 8.926" stroke-width="1.2" stroke="#000" stroke-miterlimit="10" fill="none"/><path d="M129.82 147.742l6.024 8.926" stroke-width="1.2" stroke="#00f" stroke-miterlimit="10" fill="none"/><path d="M99.313 134.82h7v11h-7zm0 0" fill="#fff"/><use xlink:href="#a" x="99.313" y="143.483" fill="#00f"/><path d="M135.844 156.668l10.742-.754" stroke-width="1.2" stroke="#00f" stroke-miterlimit="10" fill="none"/><path d="M146.586 155.914l10.742-.75" stroke-width="1.2" stroke="#000" stroke-miterlimit="10" fill="none"/><path d="M135.844 156.668l-4.72 9.68" stroke-width="1.2" stroke="#00f" stroke-miterlimit="10" fill="none"/><path d="M131.125 166.348l-4.723 9.68" stroke-width="1.2" stroke="#000" stroke-miterlimit="10" fill="none"/><path d="M132.844 151.168h7v11h-7zm0 0" fill="#fff"/><use xlink:href="#a" x="132.844" y="159.831" fill="#00f"/><path d="M155.227 156.578l6.023 8.93" stroke-width="1.2" stroke="#000" stroke-miterlimit="10" fill="none"/><path d="M161.25 165.508l6.023 8.926" stroke-width="1.2" stroke="#f00" stroke-miterlimit="10" fill="none"/><path d="M159.426 153.746l6.023 8.926" stroke-width="1.2" stroke="#000" stroke-miterlimit="10" fill="none"/><path d="M165.45 162.672l6.023 8.926" stroke-width="1.2" stroke="#f00" stroke-miterlimit="10" fill="none"/><path d="M157.328 155.164l9.438-19.36" stroke-width="1.2" stroke="#000" stroke-miterlimit="10" fill="none"/><path d="M165.375 167.516h8v11h-8zm0 0" fill="#fff"/><use xlink:href="#c" x="165.375" y="176.179" fill="#f00"/><path d="M166.766 135.805l-6.024-8.93" stroke-width="1.2" stroke="#000" stroke-miterlimit="10" fill="none"/><path d="M160.742 126.875l-6.023-8.926" stroke-width="1.2" stroke="#00f" stroke-miterlimit="10" fill="none"/><path d="M161.36 136.852l-4.817-7.14" stroke-width="1.2" stroke="#000" stroke-miterlimit="10" fill="none"/><path d="M156.543 129.71l-4.82-7.14" stroke-width="1.2" stroke="#00f" stroke-miterlimit="10" fill="none"/><path d="M166.766 135.805l21.484-1.508" stroke-width="1.2" stroke="#000" stroke-miterlimit="10" fill="none"/><path d="M151.72 112.45h7v11h-7zm0 0" fill="#fff"/><use xlink:href="#a" x="151.719" y="121.112" fill="#00f"/><path d="M188.25 134.297l12.047 17.855M200.297 152.152l21.484-1.507M221.78 150.645L233.83 168.5M227.188 149.598l9.636 14.28M231.22 131.285l-9.44 19.36M233.828 168.5l21.484-1.508M255.313 166.992l9.437-19.36M251.7 162.836l7.55-15.488M264.75 147.633l-12.047-17.852M252.703 129.78l-21.484 1.505M250.91 134.988l-17.187 1.203M126.402 176.027l-21.484 1.504M104.918 177.53l-12.043-17.85M99.516 178.582l-9.637-14.28M95.48 196.89l9.438-19.36M92.875 159.68l-21.488 1.504M71.387 161.184l-9.438 19.36M75 165.344l-7.55 15.484M61.95 180.543l12.046 17.855M61.95 180.543l-10.743.754" stroke-width="1.2" stroke="#000" stroke-miterlimit="10" fill="none"/><path d="M51.207 181.297l-10.742.754" stroke-width="1.2" stroke="#3cc" stroke-miterlimit="10" fill="none"/><path d="M73.996 198.398l21.484-1.507M75.79 193.19l17.187-1.202" stroke-width="1.2" stroke="#000" stroke-miterlimit="10" fill="none"/><path d="M34.465 176.55h6v11h-6zm0 0" fill="#fff"/><use xlink:href="#d" x="34.465" y="185.214" fill="#3cc"/></g></svg>
